X: 240
T: Snowy Breasted Pearl
C: R-129
M: C
Z: Transcribed to abc by Mary Lou Knack
R: march
K: A
E2| "A"A3B AGFE| "E7"e3g e2d2| "A"c2A>B cBAG| "D"D4- "E7"D2G2|
    "A"A3B AGFE| "E7"e3f e2d2| "A"c2A>B "E7"cBAG| "A"A6|
\
e2| "D"f2d2 "Bm7"a2f2| "E7"e2d2 "A"c2e2| "D"d2"A"c2 "D6"B2"F#m"A2| "D  F#m"F4- "Bm"F2"E7"G2|
    "A"A3B "E7"AGFE| "A"e3f e2"D"d2| "A"c2A>B "E7"cBAG| "A"A6|]
%%text 9/1/98.  Formerly J-27.  March.
% ---------- page 124 ----------
